public/img/twitter-logo-footer.svg

<svg width="39" height="39" viewBox="0 0 39 39" fill="none" xmlns="http://www.w3.org/2000/svg">
<path fill-rule="evenodd" clip-rule="evenodd" d="M19.5 39C30.2696 39 39 30.2696 39 19.5C39 8.73045 30.2696 0 19.5 0C8.73045 0 0 8.73045 0 19.5C0 30.2696 8.73045 39 19.5 39ZM37.5 19.5C37.5 29.4411 29.4411 37.5 19.5 37.5C9.55887 37.5 1.5 29.4411 1.5 19.5C1.5 9.55887 9.55887 1.5 19.5 1.5C29.4411 1.5 37.5 9.55887 37.5 19.5ZM26.7246 17.4681C26.7246 17.3178 26.7246 17.1689 26.7143 17.02C27.3916 16.5293 27.977 15.9219 28.4417 15.2247C27.8104 15.5053 27.14 15.6893 26.4538 15.7702C27.1763 15.3372 27.7172 14.6557 27.9756 13.8535C27.2956 14.257 26.5525 14.5418 25.7773 14.6949C24.4666 13.2997 22.2738 13.2324 20.8795 14.5446C19.9801 15.3907 19.599 16.6521 19.878 17.8558C17.0942 17.7165 14.5011 16.4002 12.7435 14.2351C11.8249 15.819 12.2938 17.8449 13.8149 18.8626C13.2638 18.8461 12.725 18.6972 12.2438 18.4289V18.4728C12.2438 20.1226 13.4056 21.5432 15.0206 21.8699C14.5113 22.0092 13.9767 22.0298 13.4577 21.9296C13.9115 23.3412 15.2105 24.3082 16.6919 24.3363C15.4655 25.3005 13.9513 25.8242 12.3925 25.8228C12.1169 25.8221 11.8421 25.8056 11.5686 25.7727C13.152 26.7898 14.9939 27.3292 16.8749 27.3264V27.3292C23.2423 27.3292 26.7246 22.0476 26.7246 17.4681Z" fill="white"/>
</svg>

<svg width="39" height="39" fill="none" xmlns="http://www.w3.org/2000/svg"><path fill-rule="evenodd" clip-rule="evenodd" d="M19.5 39C30.27 39 39 30.27 39 19.5S30.27 0 19.5 0 0 8.73 0 19.5 8.73 39 19.5 39zm18-19.5c0 9.941-8.059 18-18 18s-18-8.059-18-18 8.059-18 18-18 18 8.059 18 18zm-10.775-2.032c0-.15 0-.3-.01-.448a7.037 7.037 0 001.727-1.795 6.878 6.878 0 01-1.988.545 3.478 3.478 0 001.522-1.916 6.944 6.944 0 01-2.199.84 3.463 3.463 0 00-4.898-.15 3.47 3.47 0 00-1.001 3.312 9.822 9.822 0 01-7.135-3.62 3.472 3.472 0 001.072 4.627 3.437 3.437 0 01-1.571-.434v.044c0 1.65 1.162 3.07 2.777 3.397a3.44 3.44 0 01-1.563.06 3.467 3.467 0 003.234 2.406 6.946 6.946 0 01-5.123 1.437 9.79 9.79 0 005.306 1.553v.003c6.367 0 9.85-5.281 9.85-9.86z" fill="#fff"/></svg>
